X: 0
T: In vernali tempore
L: 1/4
M: 6/4
Q: 1/4=120
K: G
[V: P1]  (E F) G (E F) G | (G F) G E3 | (G A) B (B A) G | F3 F3 | (E F) G (E F) G | (G F) G E3 | (G A) B (B A) G | F3 F3 | A2 e e2 d | (e d) c B3 | A2 B (c B) A | (G F) G E3 | (G A) B (B A) G | A3 A3 | A2 e e2 d | (e d) c B3 | A2 B (c B) A | (G F) G E3 | (G A) B (B A) G | A3 A3|]

